X: 2
T: Islay Rant
R: reel
M: 4/4
L: 1/8
K: Amix
|:cA (3AAA cAdA|eA (3AAA eAfA|(g2 g)f gedB|GABG =cGBG|cA (3AAA cAdA|eA (3AAA eAfA|(g2 g)f gedB|1 GABG A4:||2 \ GABG A2 e2||:(a2 a)b aged|eA (3AAA eAfA|(g2 g)f gedB|GABG =cGBG|cA (3AAA cAdA|eA (3AAA eAfA|(g2 g)f gedB|1 GABG A2 e2:||2 \ GABG A4||


Tune 1688	Setting 1688

